X:1
T:Title
%%score { ( 1 3 4 ) | 2 }
L:1/8
Q:1/4=100
M:4/4
K:C
V:1 treble nm="Grand Piano"
V:3 treble 
V:4 treble 
V:2 bass 
V:1
 [EG]2 [_E^F][=EG] [=FA]2 [EG]2 | [EG]>[DF] [DF][^CE] [DF]4 | [Ac][GB][FA][EG] [DF]4 | %3
w: C.~Austin~Miles * * * *|||
 [GB][FA][EG][DF] [CE]4 | [EG]2 [_E^F][=EG] [=FA]2 [EG]2 | [EG][DF][DF][^CE] [DF]4 | %6
w: |||
 [Bd][Ac][GB][FA] [EG]2 [FB]2 | [Ec]6 z2 | e6 z2 | G6 z2 | d6 z2 | e6 z2 | e6 z2 | G6 z2 | %14
w: ||||||||
 c2 B2 A2 B2 | c->[Ec-] [Fc-]>[Fc-] [Ec]2 z2 |] %16
w: ||
V:2
 [C,C]2 [C,C][C,C] [C,C]2 [C,G,]2 | [G,,G,]>[G,,G,] [G,,G,][G,,G,] [G,,G,]4 | %2
 [G,,G,][G,,G,][G,,G,][G,,G,] [G,,G,]4 | [G,,G,][G,,G,][A,,G,][B,,G,] [C,G,]4 | %4
 [C,C]2 [C,C][C,C] [C,C]2 [C,G,]2 | [G,,G,][G,,G,][G,,G,][G,,G,] [G,,G,]4 | %6
 [G,,G,][G,,G,][G,,G,][G,,G,] [G,,G,]2 [G,,G,]2 | [C,G,]6 z2 | [C,C]2 (3[C,C][C,C][C,C] [C,C]2 z2 | %9
 [C,C]2 (3[C,C][C,C][C,C] [C,C]2 z2 | [G,B,F]2 (3[G,B,][G,B,][G,B,] [G,B,]2 [G,B,F]2 | %11
 [C,C]>[C,C] [C,C]>[C,C] [C,C]2 z2 | [C,C]2 (3[C,C][C,C][C,C] [C,C]2 z2 | %13
 [C,C]2 (3[C,C][C,C][C,C] [C,C]2 [C,C]2 | [G,DF]2 [G,DF]2 [G,DF]2 [G,DF]2 | %15
 [C,C]>[C,G,] [C,A,]>[C,A,] [C,G,]2 z2 |] %16
V:3
 x8 | x8 | x8 | x8 | x8 | x8 | x8 | x8 | G2 (3GGG G2 (3dcA | E2 (3EEE E2 z2 | %10
 z2 (3FFF z z/ d/ c>d | E>G G>G G2 z2 | G2 (3GGG G2 (3dcA | E2 (3EEE E2 [Ec]2 | x8 | E2 z2 z4 |] %16
V:4
 x8 | x8 | x8 | x8 | x8 | x8 | x8 | x8 | x8 | x8 | z4 F2 z2 | x8 | x8 | x8 | x8 | x8 |] %16

